Collapse/img/community_icon.svg

<svg width="70" height="70" viewBox="0 0 70 70" fill="none" xmlns="http://www.w3.org/2000/svg">
<rect width="70" height="70" rx="20" fill="url(#paint0_linear_499_13233)"/>
<mask id="mask0_499_13233" style="mask-type:alpha" maskUnits="userSpaceOnUse" x="0" y="0" width="70" height="70">
<rect width="70" height="70" rx="20" fill="url(#paint1_linear_499_13233)"/>
</mask>
<g mask="url(#mask0_499_13233)">
<path opacity="0.5" d="M-59 19.3408L49.8963 -53.9999L87.0864 1.21994C87.0864 1.21994 48.5298 -1.85818 32.6382 37.8903C16.7467 77.6388 -21.8099 74.5607 -21.8099 74.5607L-59 19.3408Z" fill="url(#paint2_linear_499_13233)"/>
</g>
<g clip-path="url(#clip0_499_13233)">
<path fill-rule="evenodd" clip-rule="evenodd" d="M47.0553 35.1154C13.3916 54.1269 -0.691476 57.6924 16.6438 41.516C2.21456 56.0857 14.2146 52.0163 45.8941 33.0757L45.5993 33.8345L46.2245 33.9539L45.5993 34.6075L46.7863 34.3606L46.2601 35.2004L47.0514 35.1235L47.0553 35.1154Z" fill="white" fill-opacity="0.24"/>
<path fill-rule="evenodd" clip-rule="evenodd" d="M47.0553 35.1154C13.3916 54.1269 -0.691476 57.6924 16.6438 41.516C2.21456 56.0857 14.2146 52.0163 45.8941 33.0757L45.5993 33.8345L46.2245 33.9539L45.5993 34.6075L46.7863 34.3606L46.2601 35.2004L47.0514 35.1235L47.0553 35.1154Z" fill="white" fill-opacity="0.24"/>
<path fill-rule="evenodd" clip-rule="evenodd" d="M45.7101 39.8849C46.4239 39.5362 47.0256 38.9863 47.4443 38.2998C47.8631 37.6134 48.0816 36.8189 48.074 36.0097C50.347 35.4958 52.9425 34.747 55.2926 33.5815C53.1166 37.4262 49.8525 39.0876 45.7101 39.8849ZM41.1838 31.8675C41.8369 31.4087 42.6045 31.1504 43.3963 31.1231C44.1881 31.0959 44.971 31.3008 45.6527 31.7137C47.2214 29.9512 49.1522 28.0288 51.3144 26.5415C46.9741 26.5313 43.9316 28.5954 41.1838 31.8675ZM47.8466 34.9373C55.7397 33.1727 60.1242 30.0301 60.9999 25.5094C56.7348 24.0255 51.8822 26.3384 46.442 32.4483L47.8466 34.9373Z" fill="white" fill-opacity="0.24"/>
<path fill-rule="evenodd" clip-rule="evenodd" d="M45.7101 39.8849C46.4239 39.5362 47.0256 38.9863 47.4443 38.2998C47.8631 37.6134 48.0816 36.8189 48.074 36.0097C50.347 35.4958 52.9425 34.747 55.2926 33.5815C53.1166 37.4262 49.8525 39.0876 45.7101 39.8849ZM41.1838 31.8675C41.8369 31.4087 42.6045 31.1504 43.3963 31.1231C44.1881 31.0959 44.971 31.3008 45.6527 31.7137C47.2214 29.9512 49.1522 28.0288 51.3144 26.5415C46.9741 26.5313 43.9316 28.5954 41.1838 31.8675ZM47.8466 34.9373C55.7397 33.1727 60.1242 30.0301 60.9999 25.5094C56.7348 24.0255 51.8822 26.3384 46.442 32.4483L47.8466 34.9373Z" fill="white" fill-opacity="0.68"/>
<path fill-rule="evenodd" clip-rule="evenodd" d="M19.1523 42.8899C21.5055 42.2333 23.7191 41.1354 25.6805 39.6522C24.981 38.1344 24.6292 36.4734 24.6518 34.7956C24.6204 32.9186 25.0655 31.0654 25.9436 29.417C26.7808 27.8652 28.0304 26.5876 29.5479 25.7321C31.1589 24.8325 32.971 24.3771 34.8061 24.4107C37.9713 24.4107 40.63 25.6781 42.7823 28.213L47.4965 23.7611C45.9855 21.9073 44.0671 20.4455 41.8981 19.4954C39.6772 18.4985 37.1912 18 34.4401 18C31.176 18 28.2357 18.7184 25.6191 20.1551C23.0692 21.5339 20.9388 23.6031 19.4609 26.1368C17.9653 28.6865 17.2169 31.5687 17.2156 34.7835C17.2156 37.7703 17.8611 40.4684 19.1523 42.8778V42.8899Z" fill="#F5F1F9"/>
<path fill-rule="evenodd" clip-rule="evenodd" d="M19.1523 42.8899C21.5055 42.2333 23.7191 41.1354 25.6805 39.6522C24.981 38.1344 24.6292 36.4734 24.6518 34.7956C24.6204 32.9186 25.0655 31.0654 25.9436 29.417C26.7808 27.8652 28.0304 26.5876 29.5479 25.7321C31.1589 24.8325 32.971 24.3771 34.8061 24.4107C37.9713 24.4107 40.63 25.6781 42.7823 28.213L47.4965 23.7611C45.9855 21.9073 44.0671 20.4455 41.8981 19.4954C39.6772 18.4985 37.1912 18 34.4401 18C31.176 18 28.2357 18.7184 25.6191 20.1551C23.0692 21.5339 20.9388 23.6031 19.4609 26.1368C17.9653 28.6865 17.2169 31.5687 17.2156 34.7835C17.2156 37.7703 17.8611 40.4684 19.1523 42.8778V42.8899Z" fill="#A8ACF9"/>
<path fill-rule="evenodd" clip-rule="evenodd" d="M30.1929 44.1869C27.5737 45.5076 25.1827 46.6597 23.0198 47.6432C23.8296 48.3154 24.7 48.9076 25.6192 49.4118C28.2318 50.8485 31.155 51.5675 34.3887 51.5689C37.1385 51.5689 39.6317 51.0738 41.8685 50.0836C44.0545 49.132 45.9828 47.6531 47.4886 45.7734L42.7745 41.3215C40.6301 43.8847 37.9713 45.1663 34.7982 45.1663C33.2092 45.189 31.6347 44.8533 30.1869 44.1829L30.1929 44.1869Z" fill="#F5F1F9"/>
<path fill-rule="evenodd" clip-rule="evenodd" d="M30.1929 44.1869C27.5737 45.5076 25.1827 46.6597 23.0198 47.6432C23.8296 48.3154 24.7 48.9076 25.6192 49.4118C28.2318 50.8485 31.155 51.5675 34.3887 51.5689C37.1385 51.5689 39.6317 51.0738 41.8685 50.0836C44.0545 49.132 45.9828 47.6531 47.4886 45.7734L42.7745 41.3215C40.6301 43.8847 37.9713 45.1663 34.7982 45.1663C33.2092 45.189 31.6347 44.8533 30.1869 44.1829L30.1929 44.1869Z" fill="#A8ACF9"/>
</g>
<defs>
<linearGradient id="paint0_linear_499_13233" x1="0.270758" y1="2.11009e-07" x2="61.9204" y2="70.8677" gradientUnits="userSpaceOnUse">
<stop stop-color="#6154F5"/>
<stop offset="1" stop-color="#975EBA"/>
</linearGradient>
<linearGradient id="paint1_linear_499_13233" x1="0.270758" y1="2.11009e-07" x2="61.9204" y2="70.8677" gradientUnits="userSpaceOnUse">
<stop stop-color="#6154F5"/>
<stop offset="1" stop-color="#975EBA"/>
</linearGradient>
<linearGradient id="paint2_linear_499_13233" x1="-4.55186" y1="-17.3295" x2="32.6382" y2="37.8903" gradientUnits="userSpaceOnUse">
<stop stop-color="#1CBDF7"/>
<stop offset="1" stop-color="white" stop-opacity="0.05"/>
</linearGradient>
<clipPath id="clip0_499_13233">
<rect width="52" height="34" fill="white" transform="translate(9 18)"/>
</clipPath>
</defs>
</svg>

<svg width="70" height="70" fill="none" xmlns="http://www.w3.org/2000/svg"><rect width="70" height="70" rx="20" fill="url(#paint0_linear_499_13233)"/><mask id="a" style="mask-type:alpha" maskUnits="userSpaceOnUse" x="0" y="0" width="70" height="70"><rect width="70" height="70" rx="20" fill="url(#paint1_linear_499_13233)"/></mask><g mask="url(#a)"><path opacity=".5" d="M-59 19.34L49.896-54l37.19 55.22S48.53-1.858 32.638 37.89C16.747 77.64-21.81 74.56-21.81 74.56L-59 19.34z" fill="url(#paint2_linear_499_13233)"/></g><g clip-path="url(#clip0_499_13233)" fill-rule="evenodd" clip-rule="evenodd"><path d="M47.055 35.115C13.392 54.127-.69 57.692 16.644 41.516c-14.43 14.57-2.43 10.5 29.25-8.44l-.295.758.626.12-.626.654 1.187-.247-.526.84.791-.078.004-.008z" fill="#fff" fill-opacity=".24"/><path d="M47.055 35.115C13.392 54.127-.69 57.692 16.644 41.516c-14.43 14.57-2.43 10.5 29.25-8.44l-.295.758.626.12-.626.654 1.187-.247-.526.84.791-.078.004-.008zm-1.345 4.77a4.187 4.187 0 001.734-1.585c.42-.687.638-1.481.63-2.29 2.273-.514 4.869-1.263 7.219-2.428-2.176 3.844-5.44 5.506-9.583 6.303zm-4.526-8.017a4.082 4.082 0 014.469-.154c1.568-1.763 3.5-3.685 5.661-5.173-4.34-.01-7.382 2.054-10.13 5.326zm6.663 3.07C55.74 33.172 60.124 30.03 61 25.508c-4.265-1.483-9.118.83-14.558 6.94l1.405 2.488z" fill="#fff" fill-opacity=".24"/><path d="M45.71 39.885a4.187 4.187 0 001.734-1.585c.42-.687.638-1.481.63-2.29 2.273-.514 4.869-1.263 7.219-2.428-2.176 3.844-5.44 5.506-9.583 6.303zm-4.526-8.017a4.082 4.082 0 014.469-.154c1.568-1.763 3.5-3.685 5.661-5.173-4.34-.01-7.382 2.054-10.13 5.326zm6.663 3.07C55.74 33.172 60.124 30.03 61 25.508c-4.265-1.483-9.118.83-14.558 6.94l1.405 2.488z" fill="#fff" fill-opacity=".68"/><path d="M19.152 42.89a19.524 19.524 0 006.528-3.238 11.246 11.246 0 01-1.028-4.856 11.052 11.052 0 011.292-5.379 9.283 9.283 0 013.604-3.685 10.39 10.39 0 015.258-1.321c3.165 0 5.824 1.267 7.976 3.802l4.715-4.452a14.985 14.985 0 00-5.599-4.266C39.678 18.498 37.191 18 34.44 18c-3.264 0-6.204.718-8.82 2.155a15.89 15.89 0 00-6.16 5.982c-1.495 2.55-2.243 5.432-2.244 8.646 0 2.987.645 5.685 1.936 8.095v.012z" fill="#F5F1F9"/><path d="M19.152 42.89a19.524 19.524 0 006.528-3.238 11.246 11.246 0 01-1.028-4.856 11.052 11.052 0 011.292-5.379 9.283 9.283 0 013.604-3.685 10.39 10.39 0 015.258-1.321c3.165 0 5.824 1.267 7.976 3.802l4.715-4.452a14.985 14.985 0 00-5.599-4.266C39.678 18.498 37.191 18 34.44 18c-3.264 0-6.204.718-8.82 2.155a15.89 15.89 0 00-6.16 5.982c-1.495 2.55-2.243 5.432-2.244 8.646 0 2.987.645 5.685 1.936 8.095v.012z" fill="#A8ACF9"/><path d="M30.193 44.187a200.27 200.27 0 01-7.173 3.456c.81.672 1.68 1.265 2.6 1.769 2.612 1.437 5.535 2.156 8.769 2.157 2.75 0 5.243-.495 7.48-1.485a14.75 14.75 0 005.62-4.31l-4.714-4.453c-2.145 2.564-4.804 3.845-7.977 3.845a10.61 10.61 0 01-4.611-.983l.006.004z" fill="#F5F1F9"/><path d="M30.193 44.187a200.27 200.27 0 01-7.173 3.456c.81.672 1.68 1.265 2.6 1.769 2.612 1.437 5.535 2.156 8.769 2.157 2.75 0 5.243-.495 7.48-1.485a14.75 14.75 0 005.62-4.31l-4.714-4.453c-2.145 2.564-4.804 3.845-7.977 3.845a10.61 10.61 0 01-4.611-.983l.006.004z" fill="#A8ACF9"/></g><defs><linearGradient id="paint0_linear_499_13233" x1=".271" y1="0" x2="61.92" y2="70.868" gradientUnits="userSpaceOnUse"><stop stop-color="#6154F5"/><stop offset="1" stop-color="#975EBA"/></linearGradient><linearGradient id="paint1_linear_499_13233" x1=".271" y1="0" x2="61.92" y2="70.868" gradientUnits="userSpaceOnUse"><stop stop-color="#6154F5"/><stop offset="1" stop-color="#975EBA"/></linearGradient><linearGradient id="paint2_linear_499_13233" x1="-4.552" y1="-17.329" x2="32.638" y2="37.89" gradientUnits="userSpaceOnUse"><stop stop-color="#1CBDF7"/><stop offset="1" stop-color="#fff" stop-opacity=".05"/></linearGradient><clipPath id="clip0_499_13233"><path fill="#fff" transform="translate(9 18)" d="M0 0h52v34H0z"/></clipPath></defs></svg>
